src/assets/selectIconsSpells/speciale_11.svg

<svg xmlns="http://www.w3.org/2000/svg" viewBox="0 0 512 512"><path d="M0 0h512v512H0z"/><path fill="#fff" d="M245.813 23.188c-1.228-.006-2.455.027-3.657.093-10.103.56-19.646 3.682-30.156 11.25l20.72 196.782c-8.394 2.127-16.676 4.47-24.814 7.094L137.72 57.812c-7.032-1.706-17.442-.3-27.126 4.626-10.248 5.213-19.034 13.84-22.813 22.937L155.03 261.5c-7.414 4.345-14.59 9.137-21.5 14.47l-74.343-94.25c-16.34.698-34.965 14.455-37.562 32.655C28.89 222.693 93.978 297.77 126 357.405c10.3 19.184 29.543 50.725 39.188 70.064 5.83 11.693 16.004 24.238 27.843 32.342 11.84 8.104 24.7 11.82 37.907 8.282l112.907-30.22c5.493-1.47 9.196-5.39 13.22-11.937 4.02-6.545 7.535-15.137 12.905-23 20.61-30.185 50.432-76.085 115.186-112.062-2.696-15.053-7.405-24.57-12.72-29.563-6.03-5.667-13.198-7.372-23.686-5.843-18.062 2.63-43.498 17.063-69.594 36.874-1.68 1.39-3.318 2.802-4.937 4.22l-7-61.252 42.5-155.718c-4.478-7.355-13.806-13.258-24.845-15.97-10.874-2.67-22.506-1.698-30.28 1.595l-38.75 149.874c-9.365 1.58-18.732 3.17-28.064 4.812L273.69 27.5c-10.057-2.52-19.284-4.272-27.875-4.313zM234.343 255l30.157 56.625 54.406-33.906-33.78 54.186L341.562 362l-64.157-2.188 2.188 64.032-30.03-56.344-54.283 33.813 33.97-54.438-56.53-30.125 63.78 2.156L234.344 255z"/></svg>

<?xml version="1.0" encoding="UTF-8" standalone="no"?>
<!DOCTYPE svg PUBLIC "-//W3C//DTD SVG 1.1//EN" "http://www.w3.org/Graphics/SVG/1.1/DTD/svg11.dtd">
<svg width="100%" height="100%" viewBox="0 0 512 512" version="1.1" xmlns="http://www.w3.org/2000/svg" xmlns:xlink="http://www.w3.org/1999/xlink" xml:space="preserve" xmlns:serif="http://www.serif.com/" style="fill-rule:evenodd;clip-rule:evenodd;stroke-linejoin:round;stroke-miterlimit:2;">
    <rect x="0" y="0" width="512" height="512" style="fill-rule:nonzero;"/>
    <path d="M245.813,23.188C244.585,23.182 243.358,23.215 242.156,23.281C232.053,23.841 222.51,26.963 212,34.531L232.72,231.313C224.326,233.44 216.044,235.783 207.906,238.407L137.72,57.812C130.688,56.106 120.278,57.512 110.594,62.438C100.346,67.651 91.56,76.278 87.781,85.375L155.03,261.5C147.616,265.845 140.44,270.637 133.53,275.97L59.187,181.72C42.847,182.418 24.222,196.175 21.625,214.375C28.89,222.693 93.978,297.77 126,357.405C136.3,376.589 155.543,408.13 165.188,427.469C171.018,439.162 181.192,451.707 193.031,459.811C204.871,467.915 217.731,471.631 230.938,468.093L343.845,437.873C349.338,436.403 353.041,432.483 357.065,425.936C361.085,419.391 364.6,410.799 369.97,402.936C390.58,372.751 420.402,326.851 485.156,290.874C482.46,275.821 477.751,266.304 472.436,261.311C466.406,255.644 459.238,253.939 448.75,255.468C430.688,258.098 405.252,272.531 379.156,292.342C377.476,293.732 375.838,295.144 374.219,296.562L367.219,235.31L409.719,79.592C405.241,72.237 395.913,66.334 384.874,63.622C374,60.952 362.368,61.924 354.594,65.217L315.844,215.091C306.479,216.671 297.112,218.261 287.78,219.903L273.69,27.5C263.633,24.98 254.406,23.228 245.815,23.187L245.813,23.188ZM234.343,255L264.5,311.625L318.906,277.719L285.126,331.905L341.562,362L277.405,359.812L279.593,423.844L249.563,367.5L195.28,401.313L229.25,346.875L172.72,316.75L236.5,318.906L234.344,255L234.343,255Z" style="fill:rgb(102,243,184);fill-rule:nonzero;"/>
</svg>
